src/Pure-Dark/16/symbolic/devices/thunderbolt-symbolic.svg

<?xml version="1.0" encoding="UTF-8" standalone="no"?>
<svg
   width="16"
   height="16"
   version="1.1"
   id="svg1"
   sodipodi:docname="thunderbolt-symbolic.svg"
   inkscape:version="1.4.2 (ebf0e940d0, 2025-05-08)"
   xmlns:inkscape="http://www.inkscape.org/namespaces/inkscape"
   xmlns:sodipodi="http://sodipodi.sourceforge.net/DTD/sodipodi-0.dtd"
   xmlns="http://www.w3.org/2000/svg"
   xmlns:svg="http://www.w3.org/2000/svg">
  <defs
     id="defs1">
     <style
        id="current-color-scheme"
        type="text/css">
        .ColorScheme-Text { color:#f2f2f2; }
     </style>
  </defs>
  <sodipodi:namedview
     id="namedview1"
     pagecolor="#ffffff"
     bordercolor="#000000"
     borderopacity="0.25"
     inkscape:showpageshadow="2"
     inkscape:pageopacity="0.0"
     inkscape:pagecheckerboard="0"
     inkscape:deskcolor="#d1d1d1"
     inkscape:zoom="49.75"
     inkscape:cx="7.9899497"
     inkscape:cy="8"
     inkscape:window-width="1920"
     inkscape:window-height="1011"
     inkscape:window-x="0"
     inkscape:window-y="0"
     inkscape:window-maximized="1"
     inkscape:current-layer="svg1" />
  <path
     id="path1"
     style="fill:currentColor"
     class="ColorScheme-Text"
     d="M 10.607422 0.005859375 L 7.0058594 6.5 L 10.587891 6.5 L 6.3125 12.650391 L 7.6699219 12.791016 L 5.0136719 14.943359 C 5.0136719 14.943359 5.9405375 15.349948 6.7734375 15.460938 C 6.9647575 15.486437 7.6865437 15.521484 7.9960938 15.521484 C 12.135094 15.52089 15.5006 12.154625 15.5 8.015625 L 15.5 8.0117188 C 15.483602 5.4823188 14.179984 2.8937594 11.521484 1.4433594 L 10.607422 0.005859375 z M 5.0136719 14.943359 L 5.2949219 11.660156 L 6.015625 12.521484 L 8.5234375 7.5 L 4.7773438 7.5 L 7.984375 0.46289062 L 7.0996094 0.5703125 C 3.5114094 1.0035625 0.84075 3.9560719 0.59375 7.5136719 C 0.561851 7.7773819 0.55424625 8.327155 0.56640625 8.515625 C 0.73463625 11.032825 2.1155906 13.324906 4.3378906 14.566406 L 5.0136719 14.943359 z M 6.2460938 1.8671875 L 3.2226562 8.5 L 6.90625 8.5 L 5.8027344 10.708984 L 4.5058594 9.1582031 L 4.1699219 13.052734 C 2.5793219 11.833334 1.4966 10.055525 1.5 8.015625 C 1.4993829 5.0760496 3.5007292 2.6545083 6.2460938 1.8671875 z M 10.603516 2.0488281 L 10.779297 2.1347656 C 13.330797 3.3744656 14.4851 5.7180781 14.5 8.0175781 C 14.499437 11.615178 11.593994 14.520984 7.9960938 14.521484 C 7.8155138 14.521484 7.5204156 14.499595 7.2285156 14.484375 L 10.089844 12.039062 L 8.1015625 11.832031 L 12.501953 5.5 L 8.6992188 5.5 L 10.603516 2.0488281 z " />
</svg>

<svg width="16" height="16" version="1.1" xmlns="http://www.w3.org/2000/svg">
 <path d="m10.608 0.0051218-3.6024 6.4949h3.582l-4.2754 6.1504 1.3574 0.14062-2.6562 2.1523s0.9269 0.40659 1.7598 0.51758c0.19132 0.0255 0.91315 0.06055 1.2227 0.06055 4.139-5.94e-4 7.5045-3.3669 7.5039-7.5059v-0.0039c-0.016398-2.5294-1.32-5.118-3.9785-6.5684zm-2.6239 0.45777-0.88477 0.10742c-3.5882 0.43325-6.2589 3.3858-6.5059 6.9434-0.031899 0.26371-0.039504 0.81353-0.027344 1.002 0.16823 2.5172 1.5492 4.8093 3.7715 6.0508l0.67578 0.37695 0.28125-3.2832 0.7207 0.86133 2.5078-5.0215h-3.7461zm-1.7383 1.4043-3.0234 6.6328h3.6836l-1.1035 2.209-1.2969-1.5508-0.33594 3.8945c-1.5906-1.2194-2.6733-2.9972-2.6699-5.0371-6.171e-4 -2.9396 2.0007-5.3611 4.7461-6.1484zm4.3574 0.18164 0.17578 0.085937c2.5515 1.2397 3.7058 3.5833 3.7207 5.8828-5.63e-4 3.5976-2.906 6.5034-6.5039 6.5039-0.18058 0-0.47568-0.02189-0.76758-0.03711l2.8613-2.4453-1.9883-0.20703 4.4004-6.332h-3.8027z" fill="#363636"/>
</svg>
